svgs/sharp-light/signal-fair.svg

<svg xmlns="http://www.w3.org/2000/svg" viewBox="0 0 640 512"><!--! Font Awesome Pro 6.6.0 by @fontawesome - https://fontawesome.com License - https://fontawesome.com/license (Commercial License) Copyright 2024 Fonticons, Inc. --><path d="M208 304l0-16-32 0 0 16 0 192 0 16 32 0 0-16 0-192zM80 400l0-16-32 0 0 16 0 96 0 16 32 0 0-16 0-96z"/></svg>

<svg xmlns="http://www.w3.org/2000/svg" viewBox="0 0 640 512"><!--! Font Awesome Pro 6.4.0 by @fontawesome - https://fontawesome.com License - https://fontawesome.com/license (Commercial License) Copyright 2023 Fonticons, Inc. --><path d="M208 304V288H176v16V496v16h32V496 304zM80 400V384H48v16 96 16H80V496 400z"/></svg>
